muebles/img/wipe — копия.svg

<svg width="41" height="39" viewBox="0 0 41 39" fill="none" xmlns="http://www.w3.org/2000/svg">
<g clip-path="url(#clip0)">
<path d="M34.8872 14.561L31.7357 11.4918L31.8396 11.0671L35.2856 10.0742C35.5473 9.99887 35.7273 9.76448 35.7273 9.49857C35.7273 9.23267 35.5473 8.99828 35.2856 8.92295L31.8396 7.93001L31.0885 4.85786C31.0222 4.5873 30.7743 4.39658 30.489 4.39658C30.2037 4.39658 29.9558 4.5873 29.8895 4.85786L29.1391 7.93001L28.321 8.16575L23.3989 3.37227C22.489 2.48573 21.2786 1.99744 19.992 1.99744C18.7048 1.99744 17.495 2.48573 16.5851 3.37227L5.09701 14.561C3.21817 16.3906 3.21817 19.3684 5.09701 21.198L5.67229 21.7584L4.99579 24.0969C4.64066 25.9178 2.46879 29.0488 2.44706 29.0802C2.28098 29.3185 2.31164 29.6383 2.52102 29.8419L9.35417 36.4973C9.47327 36.6133 9.63103 36.6732 9.78987 36.6732C9.90542 36.6732 10.0222 36.6415 10.1245 36.5767L13.7962 34.2619C14.7391 33.6673 15.6418 33.0108 16.5061 32.31L16.585 32.3867C17.4949 33.2733 18.7046 33.7613 19.9918 33.7613C21.2786 33.7613 22.4888 33.2733 23.3987 32.3867L34.8868 21.198C36.7654 19.3681 36.7654 16.3909 34.8872 14.561ZM29.8305 8.98267C30.0424 8.92175 30.2043 8.75518 30.2555 8.546L30.489 7.58967L30.7232 8.546C30.7743 8.75533 30.9363 8.92175 31.1481 8.98267L32.9385 9.49857L31.1481 10.0145C30.9363 10.0754 30.7743 10.242 30.7232 10.4511L30.489 11.4075L30.2555 10.4511C30.2043 10.2418 30.0424 10.0754 29.8305 10.0145L28.0401 9.49857L29.8305 8.98267ZM13.1263 33.2544L9.87353 35.3054L3.74754 29.3387C4.38183 28.379 5.88167 25.9849 6.19458 24.3718L8.82218 15.288C8.9251 14.7616 9.40471 14.3999 9.9632 14.4534C10.2479 14.4798 10.5043 14.6133 10.6848 14.8297C10.8588 15.0378 10.9412 15.2974 10.9184 15.5636L9.69312 20.7354C9.6318 20.9965 9.75444 21.2656 9.99524 21.3954C10.2342 21.5252 10.5345 21.4845 10.7295 21.2948L19.5769 12.6779C19.9217 12.3423 20.5194 12.3434 20.8631 12.6779C21.0346 12.8452 21.1296 13.0677 21.1296 13.3042C21.1296 13.541 21.0346 13.7635 20.8631 13.9309C20.8631 13.9309 20.8631 13.931 20.8629 13.931L14.3538 20.2711C14.1131 20.5055 14.1131 20.8855 14.3538 21.1199C14.5944 21.3543 14.9845 21.3543 15.2252 21.1199L23.5328 13.0281C23.8879 12.6828 24.4644 12.6828 24.8195 13.0281C24.991 13.1954 25.0856 13.418 25.0856 13.6547C25.0856 13.8912 24.9912 14.1138 24.8195 14.2811L22.6481 16.3959C22.6478 16.3962 22.6473 16.3965 22.6469 16.3968L16.5113 22.3727C16.2707 22.6071 16.2707 22.987 16.5113 23.2214C16.6317 23.3386 16.7894 23.3973 16.947 23.3973C17.1046 23.3973 17.2624 23.3386 17.3827 23.2214L23.5191 17.2451C23.8814 16.8927 24.4707 16.8929 24.834 17.2455C25.1964 17.5987 25.1964 18.1738 24.834 18.5269L23.0647 20.2501L18.3675 24.8248C18.1269 25.0592 18.1269 25.4392 18.3675 25.6735C18.6082 25.9079 18.9983 25.9079 19.2389 25.6735L19.5691 25.352C19.5694 25.3517 19.5697 25.3517 19.5699 25.3514L23.9361 21.0987C24.2714 20.7719 24.857 20.771 25.1933 21.099C25.3612 21.2623 25.4538 21.4797 25.4538 21.711C25.4538 21.9422 25.3611 22.1596 25.1933 22.3232L17.538 29.7795C16.1993 31.0832 14.7152 32.2523 13.1263 33.2544ZM34.0156 20.3493L22.5275 31.538C21.8499 32.1977 20.9495 32.5608 19.992 32.5608C19.0339 32.5608 18.1337 32.1977 17.4565 31.5377L17.4413 31.5228C17.7705 31.2313 18.095 30.9348 18.4093 30.6285L26.0645 23.1722C26.4654 22.7818 26.6862 22.263 26.6862 21.7112C26.6862 21.159 26.4653 20.6403 26.0645 20.2506C25.8422 20.0336 25.572 19.8832 25.2833 19.7867L25.7053 19.3757C26.5485 18.5545 26.5485 17.218 25.7053 16.3965C25.4688 16.1666 25.189 16.008 24.8929 15.907L25.6908 15.1298C26.0952 14.7359 26.3178 14.2119 26.3178 13.6547C26.3178 13.0973 26.0952 12.5733 25.6908 12.1791C24.8536 11.3652 23.4959 11.3667 22.6612 12.1794L22.2291 12.6003C22.1258 12.3191 21.9653 12.0538 21.7345 11.8291C20.9263 11.041 19.515 11.0398 18.7055 11.8291L11.3778 18.9662L12.1289 15.7959C12.1343 15.7731 12.138 15.7502 12.1409 15.7274C12.2089 15.128 12.032 14.5404 11.6414 14.0724C11.2509 13.6046 10.6966 13.3153 10.0803 13.2581C8.89105 13.149 7.83369 13.9246 7.6237 15.0131L6.05576 20.4339L5.96872 20.3492C4.57072 18.9872 4.57072 16.7715 5.96872 15.4095L17.4568 4.22086C18.134 3.5612 19.0342 3.19776 19.9923 3.19776C20.9498 3.19776 21.8502 3.5612 22.5278 4.22086L26.9761 8.55305L25.6928 8.9228C25.431 8.99813 25.2511 9.23252 25.2511 9.49842C25.2511 9.76433 25.431 9.99872 25.6928 10.074L29.1394 11.067L29.8899 14.1391C29.9561 14.4097 30.204 14.6004 30.4893 14.6004C30.7747 14.6004 31.0226 14.4097 31.0888 14.1391L31.4008 12.8627L34.0161 15.4097C35.4131 16.7716 35.4131 18.9874 34.0156 20.3493Z" fill="black"/>
<path d="M5.81786 4.07403C6.1585 4.07403 6.43413 3.80528 6.43413 3.4738V2.27333C6.43413 1.94185 6.1585 1.6731 5.81786 1.6731C5.47722 1.6731 5.2016 1.94185 5.2016 2.27333V3.4738C5.2016 3.80528 5.47722 4.07403 5.81786 4.07403Z" fill="black"/>
<path d="M5.81786 5.27454C5.47722 5.27454 5.2016 5.54329 5.2016 5.87477V7.07524C5.2016 7.40672 5.47722 7.67548 5.81786 7.67548C6.1585 7.67548 6.43413 7.40672 6.43413 7.07524V5.87477C6.43413 5.54329 6.1585 5.27454 5.81786 5.27454Z" fill="black"/>
<path d="M3.35284 5.27457H4.58537C4.92601 5.27457 5.20163 5.00581 5.20163 4.67433C5.20163 4.34285 4.92601 4.0741 4.58537 4.0741H3.35284C3.0122 4.0741 2.73657 4.34285 2.73657 4.67433C2.73657 5.00581 3.0122 5.27457 3.35284 5.27457Z" fill="black"/>
<path d="M7.05041 5.27457H8.28294C8.62358 5.27457 8.8992 5.00581 8.8992 4.67433C8.8992 4.34285 8.62358 4.0741 8.28294 4.0741H7.05041C6.70977 4.0741 6.43414 4.34285 6.43414 4.67433C6.43414 5.00581 6.70977 5.27457 7.05041 5.27457Z" fill="black"/>
<path d="M32.0092 31.0846C30.82 31.0846 29.8523 32.0271 29.8523 33.1854C29.8523 34.3437 30.82 35.2862 32.0092 35.2862C33.1985 35.2862 34.1661 34.3437 34.1661 33.1854C34.1661 32.0271 33.1985 31.0846 32.0092 31.0846ZM32.0092 34.0858C31.4994 34.0858 31.0848 33.682 31.0848 33.1854C31.0848 32.6889 31.4994 32.2851 32.0092 32.2851C32.519 32.2851 32.9336 32.6889 32.9336 33.1854C32.9336 33.682 32.5189 34.0858 32.0092 34.0858Z" fill="black"/>
<path d="M36.6817 27.2004C36.3178 27.2004 36.0229 27.4878 36.0229 27.8421C36.0229 28.1965 36.3178 28.4839 36.6817 28.4839C37.0456 28.4839 37.3405 28.1965 37.3405 27.8421C37.3407 27.4877 37.0456 27.2004 36.6817 27.2004Z" fill="black"/>
</g>
<defs>
<clipPath id="clip0">
<rect width="41" height="39" fill="white"/>
</clipPath>
</defs>
</svg>

<svg width="41" height="39" fill="none" xmlns="http://www.w3.org/2000/svg"><g clip-path="url(#clip0)" fill="#000"><path d="M34.887 14.561l-3.151-3.07.104-.424 3.446-.993a.603.603 0 00.441-.575c0-.266-.18-.5-.441-.576L31.84 7.93l-.752-3.072a.613.613 0 00-.599-.461.613.613 0 00-.6.46l-.75 3.073-.818.236-4.922-4.794a4.852 4.852 0 00-3.407-1.375 4.85 4.85 0 00-3.407 1.375L5.097 14.561a4.612 4.612 0 000 6.637l.575.56-.676 2.339c-.355 1.82-2.527 4.952-2.549 4.983a.588.588 0 00.074.762l6.833 6.655a.624.624 0 00.77.08l3.672-2.315a28.166 28.166 0 002.71-1.952l.079.077a4.85 4.85 0 003.407 1.374 4.851 4.851 0 003.407-1.374l11.488-11.189a4.613 4.613 0 000-6.637zm-5.056-5.578a.607.607 0 00.425-.437l.233-.956.234.956c.051.21.213.376.425.437l1.79.516-1.79.515a.607.607 0 00-.425.437l-.234.957-.233-.957a.607.607 0 00-.425-.437L28.04 9.5l1.79-.516zM13.126 33.254l-3.252 2.051-6.126-5.966c.634-.96 2.134-3.354 2.447-4.967l2.627-9.084a1.042 1.042 0 011.141-.835c.285.027.541.16.722.377a1 1 0 01.233.734l-1.225 5.171a.595.595 0 00.302.66c.24.13.54.09.735-.1l8.847-8.617a.949.949 0 011.286 0 .87.87 0 010 1.253l-6.51 6.34a.59.59 0 000 .849.63.63 0 00.872 0l8.308-8.092a.929.929 0 011.287 0 .87.87 0 010 1.253l-2.172 2.115h-.001l-6.136 5.977a.59.59 0 000 .848.62.62 0 00.436.176.623.623 0 00.436-.176l6.136-5.976a.95.95 0 011.315 0 .891.891 0 010 1.282l-1.77 1.723-4.697 4.575a.59.59 0 000 .849.63.63 0 00.872 0l.33-.322 4.367-4.253a.927.927 0 011.257 0 .848.848 0 010 1.224l-7.655 7.456a26.909 26.909 0 01-4.412 3.475zm20.89-12.905L22.528 31.538a3.612 3.612 0 01-2.536 1.023 3.609 3.609 0 01-2.536-1.023l-.015-.015c.33-.292.654-.588.968-.895l7.655-7.456a2.026 2.026 0 000-2.921 2.027 2.027 0 00-.78-.464l.421-.411a2.07 2.07 0 000-2.98 2.15 2.15 0 00-.812-.489l.798-.777a2.046 2.046 0 000-2.95 2.186 2.186 0 00-3.03 0l-.432.42a2.055 2.055 0 00-.494-.77c-.809-.789-2.22-.79-3.03 0l-7.327 7.136.75-3.17a.655.655 0 00.013-.069 2.178 2.178 0 00-.5-1.655 2.294 2.294 0 00-1.56-.814c-1.19-.109-2.247.667-2.457 1.755l-1.568 5.42-.087-.084a3.433 3.433 0 010-4.94L17.457 4.221a3.61 3.61 0 012.535-1.023c.958 0 1.858.363 2.536 1.023l4.448 4.332-1.283.37a.603.603 0 00-.442.575c0 .266.18.5.442.576l3.446.993.75 3.072c.067.27.315.461.6.461.286 0 .534-.19.6-.46l.312-1.277 2.615 2.547a3.434 3.434 0 010 4.94zM5.818 4.074c.34 0 .616-.269.616-.6v-1.2c0-.332-.276-.6-.616-.6a.608.608 0 00-.616.6v1.2c0 .331.275.6.616.6zm0 1.201a.608.608 0 00-.616.6v1.2c0 .332.275.6.616.6.34 0 .616-.268.616-.6v-1.2c0-.332-.276-.6-.616-.6zm-2.465 0h1.232a.61.61 0 00.617-.6c0-.332-.276-.6-.617-.6H3.353a.608.608 0 00-.616.6c0 .33.275.6.616.6zm3.697 0h1.233a.61.61 0 00.616-.6c0-.332-.275-.6-.616-.6H7.05a.608.608 0 00-.616.6c0 .33.276.6.616.6zm24.96 25.81c-1.19 0-2.158.942-2.158 2.1 0 1.159.968 2.101 2.157 2.101 1.19 0 2.157-.942 2.157-2.1 0-1.159-.967-2.101-2.157-2.101zm0 3a.914.914 0 01-.925-.9c0-.496.414-.9.924-.9s.925.404.925.9c0 .497-.415.9-.925.9zm4.672-6.885a.65.65 0 00-.66.642.65.65 0 00.66.642.65.65 0 00.658-.642.65.65 0 00-.658-.642z"/></g><defs><clipPath id="clip0"><path fill="#fff" d="M0 0h41v39H0z"/></clipPath></defs></svg>
